public/icon/plan.svg

<svg width="28" height="29" viewBox="0 0 28 29" fill="none" xmlns="http://www.w3.org/2000/svg">
<path d="M7.30162 0V1.98641C4.86774 1.98641 2.43387 1.98641 0 1.98641V28.1201H19.8641V25.1173C20.0854 25.1372 20.2998 25.1794 20.5263 25.1794C24.6377 25.1794 27.9857 21.8315 27.9857 17.72C27.9857 13.6085 24.6377 10.2632 20.5263 10.2632C20.3004 10.2632 20.0849 10.3003 19.8641 10.3201V1.98645C17.4406 1.98645 15.0171 1.98645 12.5935 1.98645V4.04137e-05L7.30162 0ZM8.62589 1.32427H11.2693V3.31069H13.9049V4.63496H5.95924V3.31069H8.62589V1.32427ZM1.32427 3.31069H4.63496V5.95924H15.2292V3.31069H18.5398V10.558C16.0354 11.256 14.0504 13.2113 13.3488 15.7154H8.78367V17.0397H13.1005C13.08 17.2643 13.0669 17.4901 13.0669 17.7199C13.0669 19.3152 13.5754 20.7913 14.4325 22.0057H8.78367V23.33H15.6275C16.4552 24.0537 17.4537 24.5718 18.5398 24.8767V26.7959H1.32427V3.31069ZM20.5263 11.5874C23.9221 11.5874 26.6614 14.3241 26.6614 17.7199C26.6614 21.1157 23.9221 23.8551 20.5263 23.8551C17.1305 23.8551 14.3911 21.1157 14.3911 17.7199C14.3911 14.3241 17.1305 11.5874 20.5263 11.5874ZM19.8641 13.5738V18.8709H25.1612V17.5466H21.1884V13.5738H19.8641Z" fill="white" fill-opacity="0.5"/>
<path d="M5.29688 1.98645V3.31073H8.2558V1.98645H5.29688Z" fill="#828688"/>
<path d="M3.31055 14.3911C3.31055 15.7154 3.31055 17.0397 3.31055 18.3639C4.69345 18.3639 6.07635 18.3639 7.45925 18.3639C7.45925 17.0397 7.45925 15.7154 7.45925 14.3911C6.07635 14.3911 4.69345 14.3911 3.31055 14.3911ZM4.63482 15.7154C5.13487 15.7154 5.63492 15.7154 6.13498 15.7154C6.13498 16.1568 6.13498 16.5982 6.13498 17.0397C5.63492 17.0397 5.13487 17.0397 4.63482 17.0397C4.63482 16.5982 4.63482 16.1568 4.63482 15.7154Z" fill="white" fill-opacity="0.5"/>
<path d="M3.31055 8.10083C3.31055 9.4251 3.31055 10.7494 3.31055 12.0737C4.69345 12.0737 6.07635 12.0737 7.45925 12.0737C7.45925 10.7494 7.45925 9.4251 7.45925 8.10083C6.07635 8.10083 4.69345 8.10083 3.31055 8.10083ZM4.63482 9.4251C5.13487 9.4251 5.63492 9.4251 6.13498 9.4251C6.13498 9.86653 6.13498 10.308 6.13498 10.7494C5.63492 10.7494 5.13487 10.7494 4.63482 10.7494C4.63482 10.308 4.63482 9.86653 4.63482 9.4251Z" fill="white" fill-opacity="0.5"/>
<path d="M3.31055 20.6815C3.31055 22.0058 3.31055 23.3301 3.31055 24.6543C4.69345 24.6543 6.07635 24.6543 7.45925 24.6543C7.45925 23.3301 7.45925 22.0058 7.45925 20.6815C6.07635 20.6815 4.69345 20.6815 3.31055 20.6815ZM4.63482 22.0058C5.13487 22.0058 5.63492 22.0058 6.13498 22.0058C6.13498 22.4472 6.13498 22.8886 6.13498 23.3301C5.63492 23.3301 5.13487 23.3301 4.63482 23.3301C4.63482 22.8886 4.63482 22.4472 4.63482 22.0058Z" fill="white" fill-opacity="0.5"/>
<path d="M8.78369 9.42505C8.78369 9.86647 8.78369 10.3079 8.78369 10.7493C11.4322 10.7493 14.0808 10.7493 16.7293 10.7493C16.7293 10.3079 16.7293 9.86647 16.7293 9.42505C14.0808 9.42505 11.4322 9.42505 8.78369 9.42505Z" fill="white" fill-opacity="0.5"/>
</svg>

<svg xmlns="http://www.w3.org/2000/svg" width="28" height="29" fill="none"><path fill="#87888D" d="M7.302 0v1.986H0V28.12h19.864v-3.003c.221.02.436.062.662.062 4.112 0 7.46-3.348 7.46-7.459s-3.348-7.457-7.46-7.457c-.226 0-.441.037-.662.057V1.986h-7.27V0H7.302Zm1.324 1.324h2.643v1.987h2.636v1.324H5.959V3.311h2.667V1.324ZM1.324 3.311h3.311v2.648h10.594V3.311h3.31v7.247c-2.504.698-4.489 2.653-5.19 5.157H8.784v1.325H13.1a7.407 7.407 0 0 0 1.332 4.966H8.784v1.324h6.843c.828.724 1.827 1.242 2.913 1.547v1.919H1.324V3.31Zm19.202 8.276a6.123 6.123 0 0 1 6.135 6.133 6.126 6.126 0 0 1-6.135 6.135 6.126 6.126 0 0 1-6.135-6.135 6.123 6.123 0 0 1 6.135-6.133Zm-.662 1.987v5.297h5.297v-1.324h-3.973v-3.973h-1.324Z"/><path fill="#87888D" d="M5.297 1.986v1.325h2.959V1.986h-2.96ZM3.31 14.391v3.973h4.15V14.39H3.31Zm1.325 1.324h1.5v1.325h-1.5v-1.325ZM3.31 8.1v3.974h4.15V8.1H3.31Zm1.325 1.325h1.5v1.324h-1.5V9.425ZM3.31 20.681v3.973h4.15v-3.973H3.31Zm1.325 1.325h1.5v1.324h-1.5v-1.324ZM8.784 9.425v1.324h7.945V9.425H8.784Z"/></svg>
